app/assets/v2/images/avatar/Clothing/spacesuit-CCCCCC.svg

<svg width="899" height="1415" fill="none" xmlns="http://www.w3.org/2000/svg"><path fill="none" d="M26 1051h845.2v363.6H26z"/><path fill-rule="evenodd" clip-rule="evenodd" d="M871.2 1309.4v-.4c0-73.2-43.7-139.4-111-168.2L643.6 1091c-61.6-26.4-127.9-39.9-195-39.9-67 0-133.3 13.6-195 39.9L137 1140.8c-67.3 28.8-111 95-111 168.2v105.6h845.2v-105.2z" fill="#CCC"/><rect x="45" y="1300" width="41" height="61" rx="8" fill="#fff"/><g opacity=".15"><path fill="none" d="M274 1087h353v314.5H274z"/><path d="M337 1090.84c0 61.93 50.159 112.16 112 112.16s112-50.23 112-112.16c0-1.3 0-2.53-.082-3.84" stroke="#000" stroke-width="11.045"/><path d="M274 1101v295.5M627 1106v295.5" stroke="#000" stroke-width="30"/><rect x="274" y="1325" width="176" height="71" rx="10" fill="#000"/><circle cx="427" cy="1347" r="8" fill="#C4C4C4"/><circle cx="402" cy="1347" r="8" fill="#C4C4C4"/></g><path d="M448.6 1078c31.5 0 63.2 3.2 94.1 9.5 30.9 6.3 61.3 15.8 90.3 28.2l116.6 49.9c57.5 24.6 94.6 80.9 94.6 143.4v78.6H53V1309c0-62.5 37.1-118.8 94.6-143.4l116.6-49.9c29-12.4 59.4-21.9 90.3-28.2 30.9-6.3 62.6-9.5 94.1-9.5zm0-27c-67 0-133.3 13.6-195 39.9L137 1140.8c-67.3 28.8-111 95-111 168.2v105.6h845.2V1309c0-73.2-43.7-139.4-111-168.2L643.6 1091c-61.7-26.4-128-40-195-40z" fill="#333"/><path d="M317.297 1079.34c-.338 79.01 58.503 143.35 131.387 143.66 72.883.31 132.272-63.52 132.61-142.53.007-1.67.014-3.24-.075-4.91" stroke="#333" stroke-width="60" stroke-linecap="round"/><path d="M317.297 1079.34c-.338 79.01 58.503 143.35 131.387 143.66 72.883.31 132.272-63.52 132.61-142.53.007-1.67.014-3.24-.075-4.91" stroke="#fff" stroke-width="30" stroke-linecap="round"/><path d="M181.271 1103.05c-7.866.68-13.941 7.48-13.213 15.47l24.385 267.59c.726 7.97 7.899 13.6 15.747 12.93 7.866-.68 13.941-7.48 13.212-15.47l-24.384-267.59c-.726-7.96-7.899-13.6-15.747-12.93zm547.671 17.38c.728-7.99-5.347-14.79-13.213-15.47-7.847-.67-15.021 4.96-15.747 12.93l-24.384 267.59c-.729 7.99 5.346 14.79 13.212 15.47 7.848.67 15.021-4.97 15.747-12.93l24.385-267.59z" fill="#fff" stroke="#333" stroke-width="10"/></svg>

<svg width="899" height="1415" viewBox="0 0 899 1415" fill="none" xmlns="http://www.w3.org/2000/svg">
<rect width="845.2" height="363.6" fill="black" fill-opacity="0" transform="translate(26 1051)"/>
<path fill-rule="evenodd" clip-rule="evenodd" d="M871.2 1309.4V1309C871.2 1235.8 827.5 1169.6 760.2 1140.8L643.6 1091C582 1064.6 515.7 1051.1 448.6 1051.1C381.6 1051.1 315.3 1064.7 253.6 1091L137 1140.8C69.7 1169.6 26 1235.8 26 1309V1414.6H871.2V1309.4Z" fill="#CCCCCC"/>
<g opacity="0.15">
<rect width="353" height="314.5" fill="black" fill-opacity="0" transform="translate(274 1087)"/>
<path d="M337 1090.84C337 1152.77 387.159 1203 449 1203C510.841 1203 561 1152.77 561 1090.84C561 1089.54 561 1088.31 560.918 1087" stroke="black" stroke-width="11.045"/>
<path d="M274 1101V1396.5" stroke="black" stroke-width="30"/>
<path d="M627 1106V1401.5" stroke="black" stroke-width="30"/>
<rect x="274" y="1325" width="176" height="71" rx="10" fill="black"/>
<circle cx="427" cy="1347" r="8" fill="#C4C4C4"/>
<circle cx="402" cy="1347" r="8" fill="#C4C4C4"/>
</g>
<path d="M448.6 1078C480.1 1078 511.8 1081.2 542.7 1087.5C573.6 1093.8 604 1103.3 633 1115.7L749.6 1165.6C807.1 1190.2 844.2 1246.5 844.2 1309V1387.6H53V1309C53 1246.5 90.1 1190.2 147.6 1165.6L264.2 1115.7C293.2 1103.3 323.6 1093.8 354.5 1087.5C385.4 1081.2 417.1 1078 448.6 1078ZM448.6 1051C381.6 1051 315.3 1064.6 253.6 1090.9L137 1140.8C69.7 1169.6 26 1235.8 26 1309V1414.6H871.2V1309C871.2 1235.8 827.5 1169.6 760.2 1140.8L643.6 1091C581.9 1064.6 515.6 1051 448.6 1051Z" fill="#333333"/>
<path d="M197.943 1119.69C197.219 1111.44 189.943 1105.33 181.69 1106.06C173.437 1106.78 167.334 1114.06 168.057 1122.31L197.943 1119.69ZM192.08 1396.32C192.804 1404.57 200.08 1410.68 208.333 1409.95C216.586 1409.23 222.689 1401.95 221.966 1393.7L192.08 1396.32ZM728.966 1122.31C729.689 1114.06 723.586 1106.78 715.333 1106.06C707.081 1105.33 699.804 1111.44 699.08 1119.69L728.966 1122.31ZM675.057 1393.7C674.334 1401.95 680.437 1409.23 688.69 1409.95C696.943 1410.68 704.219 1404.57 704.943 1396.32L675.057 1393.7ZM168.057 1122.31L192.08 1396.32L221.966 1393.7L197.943 1119.69L168.057 1122.31ZM699.08 1119.69L675.057 1393.7L704.943 1396.32L728.966 1122.31L699.08 1119.69Z" fill="#333333"/>
</svg>
